images/joy.svg

<svg width="473" height="123" viewBox="0 0 473 123" fill="none" xmlns="http://www.w3.org/2000/svg">
<path d="M470.744 50.7502C474.156 55.1858 471.938 54.8446 468.185 55.0152C432.871 56.5505 397.387 56.5505 361.902 56.7211C361.561 56.7211 351.666 57.7448 361.39 53.9916C387.662 43.5851 414.446 33.6905 441.571 26.3548C447.201 24.8194 446.86 25.1606 450.101 28.0607C453.343 30.9609 456.243 34.2023 459.143 37.273C463.067 41.538 467.161 45.9735 470.744 50.7502ZM89.2869 80.6048C61.4795 74.4633 33.3308 69.516 5.35279 64.0569C-3.00651 62.3509 0.576047 66.6158 1.94083 69.8572C4.84099 76.8517 7.74117 83.6756 11.1531 90.3289C13.7121 95.2763 14.0533 94.9351 19.5124 94.2527C43.0549 91.5231 66.4268 87.9406 89.6281 83.8462C98.6698 82.3108 93.0401 81.2872 89.2869 80.6048ZM402.675 4.34763C397.728 2.64165 392.439 1.44748 387.151 0.253293C384.08 -0.429098 381.521 0.253285 379.815 2.47106C372.138 12.3657 364.973 22.9428 357.808 33.3493C353.372 39.6614 355.931 37.7848 359.684 35.567C374.185 26.8665 389.368 19.0191 403.528 9.63617C407.793 6.73601 406.94 5.88301 402.675 4.34763ZM70.6917 23.9664C66.9386 25.5018 63.0149 27.0371 59.2617 28.4019C53.4614 30.6197 54.6556 31.3021 58.5793 33.5199C68.9858 39.1496 79.7334 44.2675 90.4811 49.556C95.4284 51.9444 95.599 51.4326 92.6989 47.1677C88.0927 40.0026 83.1454 33.0081 77.8568 26.1842C75.4685 22.7722 74.2743 22.431 70.6917 23.9664ZM381.18 95.2763C374.356 89.6465 367.361 84.358 360.196 79.2401C357.637 77.3635 356.443 77.8753 357.808 80.9461C362.755 91.8643 367.532 102.953 372.82 113.701C375.55 119.331 376.062 118.819 378.28 113.53C379.815 109.948 381.35 106.536 382.886 103.124C385.445 97.1528 384.592 98.0058 381.18 95.2763ZM97.8168 95.7881C88.2633 103.124 78.8804 110.801 69.8388 118.819C65.915 122.231 66.5974 123.254 70.6917 122.913C73.7625 122.743 76.6627 122.572 79.7334 122.06C83.9984 121.378 85.5338 120.525 89.1163 115.407C93.2107 109.436 97.1344 103.636 100.888 97.3234C104.982 89.9877 99.6934 94.2527 97.8168 95.7881Z" fill="#EB8382"/>
<path d="M380.668 107.73C380.327 107.9 379.815 107.9 379.474 108.071C374.697 109.095 371.626 102.783 369.408 99.5412C365.996 94.4233 362.585 89.1347 359.343 83.8462C358.831 82.8226 358.149 81.9696 357.637 80.946C362.585 91.8643 367.361 102.953 372.479 113.701C375.209 119.331 375.721 118.819 377.938 113.53C379.132 111.654 379.985 109.777 380.668 107.73Z" fill="#C37A87"/>
<path d="M459.143 37.1021C458.119 35.908 457.096 34.8844 456.072 33.6902C457.096 35.908 457.949 38.2963 458.972 40.5141C460.508 43.7555 463.408 50.0676 458.119 51.0912C452.148 52.2854 445.666 52.2854 439.695 52.7972C418.029 54.1619 396.192 55.0149 374.526 56.0385C368.897 56.2091 363.437 56.5503 357.808 56.8915C359.002 57.2327 361.731 56.8915 362.073 56.8915C397.386 56.5503 432.871 56.7209 468.355 55.1855C472.108 55.0149 474.326 55.3561 470.914 50.9206C467.161 45.9732 463.067 41.5377 459.143 37.1021Z" fill="#C37A87"/>
<path d="M390.051 13.3891C386.127 16.2893 382.203 19.36 378.28 22.2602C373.844 25.5016 369.579 28.9135 365.314 32.1549C378.109 24.6486 391.245 17.8247 403.528 9.46536C407.793 6.56519 406.94 5.71221 402.675 4.34742C399.263 3.15324 395.851 2.30025 392.439 1.44727C393.975 2.81205 394.998 4.34743 395.169 6.3946C395.51 9.63596 392.269 11.6831 390.051 13.3891Z" fill="#C37A87"/>
<path d="M97.8168 95.7879C97.6462 95.9585 97.4756 96.1291 97.305 96.2997C95.0872 102.271 86.2161 112.677 84.8513 114.042C81.61 117.454 78.0274 120.354 74.1037 122.742C76.1508 122.572 78.0274 122.401 79.904 122.06C84.169 121.378 85.7043 120.525 89.2869 115.407C93.3812 109.436 97.305 103.635 101.058 97.3233C104.982 89.9876 99.6934 94.2526 97.8168 95.7879Z" fill="#C37A87"/>
<path d="M82.4629 43.9262C77.5156 40.8554 72.3977 37.6141 67.7915 34.0315C65.7443 32.4961 63.8678 30.4489 63.5266 27.89C63.5266 27.5488 63.5266 27.037 63.5266 26.6958C61.9912 27.2076 60.6264 27.89 59.091 28.4018C53.2907 30.6196 54.4849 31.3019 58.4086 33.5197C68.8151 39.1494 79.5628 44.2674 90.3104 49.5559C92.187 50.4089 93.2106 50.9207 93.893 51.0913C90.3104 48.7029 86.3867 46.3145 82.4629 43.9262Z" fill="#C37A87"/>
<path d="M93.04 83.1638C77.1744 84.8698 61.1382 85.7228 45.102 86.7464C40.1547 87.0876 35.2074 87.2582 30.26 87.0876C25.1421 86.917 19.5124 86.5758 14.9062 84.358C10.1295 82.1402 7.22935 78.0459 3.98799 74.2927C6.20576 79.7519 8.59411 85.211 11.3237 90.4995C13.8826 95.4469 14.2239 95.1057 19.683 94.4233C43.2255 91.6937 66.5974 88.1111 89.7987 84.0168C91.1634 83.6756 92.1871 83.3344 93.04 83.1638Z" fill="#C37A87"/>
</svg>

<svg width="473" height="123" fill="none" xmlns="http://www.w3.org/2000/svg"><path d="M470.744 50.75c3.412 4.436 1.194 4.095-2.559 4.265-35.314 1.535-70.798 1.535-106.283 1.706-.341 0-10.236 1.024-.512-2.73 26.272-10.406 53.056-20.3 80.181-27.636 5.63-1.536 5.289-1.194 8.53 1.706 3.242 2.9 6.142 6.141 9.042 9.212 3.924 4.265 8.018 8.7 11.601 13.477zM89.287 80.605C61.479 74.463 33.33 69.516 5.353 64.057c-8.36-1.706-4.777 2.559-3.412 5.8 2.9 6.995 5.8 13.819 9.212 20.472 2.56 4.947 2.9 4.606 8.36 3.924 23.542-2.73 46.914-6.312 70.115-10.407 9.042-1.535 3.412-2.559-.341-3.241zM402.675 4.348c-4.947-1.706-10.236-2.9-15.524-4.095-3.071-.682-5.63 0-7.336 2.218-7.677 9.895-14.842 20.472-22.007 30.878-4.436 6.312-1.877 4.436 1.876 2.218 14.501-8.7 29.684-16.548 43.844-25.93 4.265-2.901 3.412-3.754-.853-5.29zM70.692 23.966a314.999 314.999 0 01-11.43 4.436c-5.8 2.218-4.606 2.9-.683 5.118 10.407 5.63 21.154 10.747 31.902 16.036 4.947 2.388 5.118 1.877 2.218-2.388a292.12 292.12 0 00-14.842-20.984c-2.388-3.412-3.583-3.753-7.165-2.218zm310.488 71.31c-6.824-5.63-13.819-10.918-20.984-16.036-2.559-1.876-3.753-1.365-2.388 1.706 4.947 10.918 9.724 22.007 15.012 32.755 2.73 5.63 3.242 5.118 5.46-.171 1.535-3.582 3.07-6.994 4.606-10.406 2.559-5.971 1.706-5.118-1.706-7.848zm-283.363.512c-9.554 7.336-18.937 15.013-27.978 23.031-3.924 3.412-3.242 4.435.853 4.094 3.07-.17 5.97-.341 9.041-.853 4.265-.682 5.8-1.535 9.383-6.653 4.095-5.971 8.018-11.771 11.772-18.084 4.094-7.335-1.195-3.07-3.071-1.535z" fill="#EB8382"/><path d="M380.668 107.73c-.341.17-.853.17-1.194.341-4.777 1.024-7.848-5.288-10.066-8.53a492.733 492.733 0 01-10.065-15.695c-.512-1.023-1.194-1.876-1.706-2.9 4.948 10.918 9.724 22.007 14.842 32.755 2.73 5.63 3.242 5.118 5.459-.171 1.194-1.876 2.047-3.753 2.73-5.8zm78.475-70.628c-1.024-1.194-2.047-2.218-3.071-3.412 1.024 2.218 1.877 4.606 2.9 6.824 1.536 3.241 4.436 9.554-.853 10.577-5.971 1.194-12.453 1.194-18.424 1.706-21.666 1.365-43.503 2.218-65.169 3.242-5.629.17-11.089.511-16.718.852 1.194.342 3.923 0 4.265 0 35.313-.34 70.798-.17 106.282-1.706 3.753-.17 5.971.171 2.559-4.264-3.753-4.948-7.847-9.383-11.771-13.819zM390.051 13.39c-3.924 2.9-7.848 5.97-11.771 8.87-4.436 3.242-8.701 6.653-12.966 9.895 12.795-7.506 25.931-14.33 38.214-22.69 4.265-2.9 3.412-3.753-.853-5.118-3.412-1.194-6.824-2.047-10.236-2.9 1.536 1.365 2.559 2.9 2.73 4.948.341 3.241-2.9 5.288-5.118 6.994zM97.817 95.788l-.512.512c-2.218 5.971-11.089 16.377-12.454 17.742a52.244 52.244 0 01-10.747 8.7c2.047-.17 3.923-.341 5.8-.682 4.265-.682 5.8-1.535 9.383-6.653 4.094-5.971 8.018-11.772 11.771-18.084 3.924-7.335-1.365-3.07-3.241-1.535zM82.463 43.926c-4.947-3.07-10.065-6.312-14.671-9.895-2.048-1.535-3.924-3.582-4.265-6.141v-1.194c-1.536.512-2.9 1.194-4.436 1.706-5.8 2.218-4.606 2.9-.682 5.118 10.406 5.63 21.154 10.747 31.901 16.036 1.877.853 2.9 1.365 3.583 1.535-3.583-2.388-7.506-4.776-11.43-7.165zM93.04 83.164c-15.866 1.706-31.902 2.559-47.938 3.582-4.947.342-9.895.512-14.842.342-5.118-.171-10.748-.512-15.354-2.73C10.13 82.14 7.23 78.046 3.988 74.293c2.218 5.459 4.606 10.918 7.336 16.206 2.559 4.948 2.9 4.607 8.359 3.924 23.542-2.73 46.914-6.312 70.116-10.406 1.364-.341 2.388-.683 3.241-.853z" fill="#C37A87"/></svg>
